!!!OTL: Der Kaiser liebt sein Landel
!!!OTL-incipit: Die Sennerin hoasst Liesl, sie is von Milch und Bluet
!!!ARE: Europa, Mitteleuropa, Deutschland, Bayern
!!!SCT: D0286
!!!TXL: @@BAR
!!!YEM: Copyright 1995, estate of Helmut Schaffrath.
**kern	**text
*ICvox	*
!! Mixed meters:  4/4; 3/4
*M4/8	*
*k[f#]	*
*G:	*
{4d	Die
=1	=1
4.g	Sen-
8d	-ne-
4B	-rin
4d	hoaßt
=2	=2
4g	Lie-
4g	-sl,
4r}	.
{4g	sie
=3	=3
4.a	is
8f#	von
4d	Milch
4a	und
=4	=4
2g	Bluet.
4r}	.
{4d	Sie
=5	=5
4.g	liebt
8d	den
4B	sau-
4d	-bern
=6	=6
4g	Fran-
4g	-zl,
4r}	.
{4g	von
=7	=7
4.a	Her-
8f#	-zen
4d	is
4a	er
=8	=8
*M3/4	*
4.g}	guet.
{8gL	Wohl
8f#	auf
8gJ	dar
=9	=9
8aL	ho-
8a	-chen
8dJ	Alm,
8aL	wohl
8g	auf
8aJ	dar
=10	=10
8bL	höch-
8b	-sten
8gJ}	Schneid
{8gL	bei
8f#	mei-
8gJ	-ner
=11	=11
8.aL	Sen-
16f#	-ne-
8dJ	-rin
8ccL	hab
8b	ich's
8aJ	mei
=15	=15
4.g}	Freid.
{8gL	bei
8f#	mei-
8gJ	-ner
=16	=16
8.aL	Sen-
16f#	-ne-
8dJ	-rin
8ccL	hab
8b	ich's
8aJ	mei
=17	=17
4.g}	Freid.
{8dL	Hol-
8.d	-la
16dJ	de-
=18	=18
(8dL	-rai-
8g)	.
8gJ	-ja,
8gL	hol-
8.g	-la
16gJ	de-
=19	=19
(8gL	-rai-
8b)	.
8bJ}	-ja,
{8gL	hol-
8g	-la
8bJ	di-
=20	=20
4.dd	ri,
8ccL	hol-
8b	-la
8aJ	di-
=21	=21
4.g}	-ro.
{8dL	Hol-
8.d	-la
16dJ	de-
=22	=22
8dL	-rai-
8g	.
8gJ	-ja,
8gL	hol-
8.g	-la
16gJ	de-
=23	=23
8gL	-rai-
8b	.
8bJ}	-ja,
{8gL	hol-
8g	-la
8bJ	di-
=24	=24
4.dd	-ri,
8ccL	di-
8b	-ri-
8aJ	-a-
=25	=25
4.g	ho.
4.r}	.
==	==
!!!AGN: Hirten - Lied, Bauernlied, Jodler
!! mehrstimmig notiert; Takt von 3/4 auf 6/8 korrigiert
!!    Inzipit = Variante zum Lied
!!!ONB: ESAC (Essen Associative Code) Database: DVA
!!!AMT: irregular
!!!AIN: vox
!!!EED: Helmut Schaffrath
!!!EEV: 1.0
!!!YOR: https://freidok.uni-freiburg.de/data/150373
!!!EFL: A203404
!!!ENC: Anna Maria Matuszewska
!!!EEV: 2025/06/04
*-	*-
